tetrification/src/assets/images/avatars/avatarF.svg

<svg width="250" height="256" viewBox="0 0 250 256" fill="none" xmlns="http://www.w3.org/2000/svg">
<g clip-path="url(#clip0_538_3997)">
<path d="M246.925 153.076C262.137 85.5015 219.881 18.3463 152.542 3.08056C85.2034 -12.1852 18.2825 30.2194 3.07001 97.7937C-12.1425 165.368 30.1142 232.523 97.4528 247.789C164.791 263.055 231.712 220.65 246.925 153.076Z" fill="white"/>
<mask id="mask0_538_3997" style="mask-type:luminance" maskUnits="userSpaceOnUse" x="-1" y="-1" width="252" height="252">
<path d="M246.925 153.076C262.137 85.5015 219.881 18.3463 152.542 3.08056C85.2034 -12.1852 18.2825 30.2194 3.07001 97.7937C-12.1425 165.368 30.1142 232.523 97.4528 247.789C164.791 263.055 231.712 220.65 246.925 153.076Z" fill="white"/>
</mask>
<g mask="url(#mask0_538_3997)">
<path d="M87.6806 61.9862C87.6806 61.9862 82.043 94.2885 43.2873 117.761C1.96699 142.786 25.5123 222.3 97.8725 224.074C176.467 225.96 216.417 127.434 170.984 46.9443L87.6806 61.9862Z" fill="#D46919"/>
<path d="M218.208 200.336C214.163 189.51 201.782 175.289 177.817 171.495L133.136 162.621L88.433 171.517C64.4677 175.289 52.087 189.51 48.0412 200.358L38.6895 242.755H79.7002L82.6849 246.26L132.428 256.089L183.565 242.777H227.56L218.208 200.336Z" fill="white"/>
<path d="M87.0625 171.983L135.524 162.11L180.713 171.828L179.718 172.56C152.105 192.527 114.919 191.595 87.0625 171.983Z" fill="#E0A78F"/>
<path d="M108.971 100.057C109.065 102.647 108.392 105.207 107.038 107.413C105.683 109.619 103.707 111.373 101.36 112.453C99.0122 113.533 96.3985 113.891 93.8485 113.482C91.2985 113.072 88.9266 111.913 87.0325 110.152C85.1383 108.39 83.8068 106.105 83.2061 103.585C82.6054 101.064 82.7624 98.4219 83.6573 95.991C84.5523 93.5601 86.145 91.4498 88.2344 89.9267C90.3238 88.4036 92.816 87.536 95.3965 87.4334C98.863 87.3074 102.238 88.5652 104.782 90.9313C107.327 93.2973 108.833 96.5788 108.971 100.057Z" fill="#E0A78F"/>
<path d="M88.4316 98.7923C88.4316 98.7923 93.605 96.1966 98.6678 105.204" stroke="#B9635E" stroke-width="0.66" stroke-linecap="round" stroke-linejoin="round"/>
<path d="M156.703 99.835C156.738 102.43 157.538 104.957 159.004 107.096C160.469 109.235 162.533 110.891 164.935 111.854C167.337 112.817 169.969 113.044 172.5 112.506C175.03 111.969 177.346 110.691 179.153 108.834C180.96 106.977 182.179 104.624 182.654 102.073C183.13 99.5212 182.842 96.8856 181.826 94.4985C180.81 92.1114 179.112 90.0799 176.946 88.6605C174.781 87.2411 172.245 86.4975 169.658 86.5236C167.935 86.538 166.231 86.8945 164.646 87.5724C163.06 88.2503 161.624 89.2363 160.42 90.4736C159.215 91.7108 158.267 93.175 157.629 94.7816C156.991 96.3883 156.676 98.1057 156.703 99.835Z" fill="#E0A78F"/>
<path d="M177.13 97.6167C177.13 97.6167 171.847 95.3982 167.248 104.583" stroke="#B9635E" stroke-width="0.66" stroke-linecap="round" stroke-linejoin="round"/>
<path d="M132.581 110.4C157.427 110.143 177.375 91.0732 177.137 67.8064C176.898 44.5396 156.563 25.8863 131.716 26.143C106.87 26.3998 86.9221 45.4694 87.1608 68.7362C87.3996 92.003 107.735 110.656 132.581 110.4Z" fill="#D46919"/>
<path d="M145.736 126.236C142.641 129.162 138.986 131.426 134.992 132.892C129.841 134.223 124.778 130.34 124.711 130.296L118.632 125.859L116.664 169.054L117.327 169.764C126.171 179.127 138.817 179.127 147.549 169.764L148.832 168.389L145.736 126.236Z" fill="#E0A78F"/>
<path d="M114.498 120.113C114.498 120.113 122.015 145.271 134.97 144.894C145.604 144.584 148.235 121.022 148.235 121.022L114.498 120.113Z" fill="#1E0B02"/>
<path d="M167.89 75.2754C168.052 87.1157 166.82 98.9336 164.22 110.484C162.275 119.025 156.571 125.06 148.435 129.963L146.954 130.873C142.619 133.433 137.706 134.844 132.678 134.972C127.649 135.1 122.671 133.941 118.213 131.605C109.37 126.835 102.936 120.512 100.88 111.327C98.4745 99.8175 96.9958 88.1323 96.4583 76.3847C96.4583 76.3847 93.0758 38.0036 131.588 38.1145C170.101 38.2254 167.89 75.2754 167.89 75.2754Z" fill="#E0A78F"/>
<path d="M129.289 95.3091L129.355 100.855L133.136 100.811" stroke="#B9635E" stroke-width="0.66" stroke-linecap="round" stroke-linejoin="round"/>
<path d="M102.936 75.6305L123.275 73.5672C123.275 73.5672 121.396 68.3093 113.172 69.2411C104.947 70.1728 102.936 75.6305 102.936 75.6305Z" fill="#D46919"/>
<path d="M158.913 75.0537L138.529 73.412C138.529 73.412 140.298 68.1096 148.544 68.9748C156.791 69.8401 158.913 75.0537 158.913 75.0537Z" fill="#D46919"/>
<path d="M118.875 87.899C118.879 88.5177 118.701 89.1238 118.362 89.6406C118.023 90.1575 117.539 90.5619 116.971 90.8027C116.403 91.0435 115.777 91.1099 115.171 90.9935C114.566 90.8771 114.008 90.5831 113.569 90.1487C113.13 89.7144 112.829 89.1591 112.705 88.5532C112.58 87.9473 112.638 87.3179 112.87 86.7446C113.101 86.1713 113.497 85.68 114.008 85.3326C114.518 84.9852 115.119 84.7975 115.736 84.793C116.145 84.7901 116.551 84.8681 116.93 85.0227C117.31 85.1772 117.655 85.4051 117.946 85.6936C118.238 85.982 118.47 86.3252 118.629 86.7036C118.789 87.082 118.872 87.4882 118.875 87.899Z" fill="#1E0B02"/>
<path d="M149.451 87.5667C149.46 88.1863 149.285 88.7945 148.949 89.3142C148.613 89.8339 148.13 90.2418 147.563 90.486C146.995 90.7302 146.368 90.7998 145.761 90.6859C145.154 90.572 144.595 90.2799 144.153 89.8464C143.712 89.413 143.409 88.8578 143.283 88.2513C143.156 87.6448 143.212 87.0143 143.444 86.4398C143.675 85.8652 144.071 85.3725 144.581 85.0241C145.092 84.6757 145.694 84.4874 146.312 84.4829C147.133 84.4827 147.922 84.8055 148.508 85.382C149.095 85.9585 149.434 86.7428 149.451 87.5667Z" fill="#1E0B02"/>
<path d="M119.893 108.82C119.893 108.82 128.603 113.457 142.509 108.576" stroke="black" stroke-width="0.66" stroke-linecap="round" stroke-linejoin="round"/>
<path d="M167.801 66.5568C167.801 66.5568 111.137 69.2634 113.193 35.8962C113.193 35.8962 162.45 21.3203 167.801 66.5568Z" fill="#D46919"/>
<path d="M95.5508 67.311C95.5508 67.311 115.448 58.7474 115.183 38.27C115.183 38.27 94.777 40.8436 95.5508 67.311Z" fill="#D46919"/>
<mask id="mask1_538_3997" style="mask-type:luminance" maskUnits="userSpaceOnUse" x="38" y="171" width="190" height="73">
<path d="M218.208 200.647C214.317 190.131 202.733 176.464 180.47 172.049L179.718 172.582C152.105 192.749 114.963 191.839 87.0623 172.005L88.4551 171.539C64.4898 175.266 52.1092 189.709 48.0633 200.647L38.6895 243.509H227.56L218.208 200.647Z" fill="white"/>
</mask>
<g mask="url(#mask1_538_3997)">
<path d="M33.2734 176.73H231.606" stroke="#EF758D" stroke-miterlimit="10"/>
<path d="M33.2734 187.113H231.606" stroke="#EF758D" stroke-miterlimit="10"/>
<path d="M33.2734 197.519H231.606" stroke="#EF758D" stroke-miterlimit="10"/>
<path d="M33.2734 207.901H231.606" stroke="#EF758D" stroke-miterlimit="10"/>
<path d="M33.2734 218.284H231.606" stroke="#EF758D" stroke-miterlimit="10"/>
<path d="M33.2734 228.689H231.606" stroke="#EF758D" stroke-miterlimit="10"/>
<path d="M33.2734 239.072H231.606" stroke="#EF758D" stroke-miterlimit="10"/>
</g>
</g>
</g>
<defs>
<clipPath id="clip0_538_3997">
<rect width="250" height="256" fill="white"/>
</clipPath>
</defs>
</svg>

<svg xmlns="http://www.w3.org/2000/svg" width="250" height="256" fill="none" xmlns:v="https://vecta.io/nano"><style><![CDATA[.M{fill:#d46919}.N{fill:#e0a78f}.O{stroke-width:.66}.P{stroke-linecap:round}.Q{stroke-linejoin:round}.R{stroke:#b9635e}]]></style><g clip-path="url(#C)"><path d="M246.925 153.076c15.212-67.574-27.044-134.73-94.383-149.995S18.283 30.219 3.07 97.794s27.044 134.729 94.383 149.995 134.259-27.139 149.472-94.713z" fill="#fff"/><mask id="A" maskUnits="userSpaceOnUse" x="-1" y="-1" width="252" height="252"><path d="M246.925 153.076c15.212-67.574-27.044-134.73-94.383-149.995S18.283 30.219 3.07 97.794s27.044 134.729 94.383 149.995 134.259-27.139 149.472-94.713z" fill="#fff"/></mask><g mask="url(#A)"><path d="M87.681 61.986s-5.638 32.302-44.393 55.775C1.967 142.786 25.512 222.3 97.873 224.074c78.595 1.886 118.545-96.64 73.112-177.13L87.681 61.986z" class="M"/><path d="M218.208 200.336c-4.045-10.826-16.426-25.047-40.391-28.841l-44.681-8.874-44.703 8.896c-23.965 3.772-36.346 17.993-40.392 28.841l-9.352 42.397H79.7l2.985 3.505 49.743 9.829 51.137-13.312h43.995l-9.352-42.441z" fill="#fff"/><path d="M87.063 171.983l48.462-9.873 45.189 9.718-.995.732c-27.613 19.967-64.799 19.035-92.655-.577zm21.908-71.926c.094 2.59-.579 5.15-1.933 7.356a13.08 13.08 0 0 1-5.678 5.04 13.03 13.03 0 0 1-7.511 1.029 13.05 13.05 0 0 1-6.816-3.33c-1.894-1.761-3.226-4.047-3.826-6.567a13.16 13.16 0 0 1 .451-7.594 13.11 13.11 0 0 1 4.577-6.064c2.089-1.523 4.582-2.391 7.162-2.493 3.466-.126 6.841 1.132 9.385 3.498s4.051 5.648 4.189 9.126z" class="N"/><path d="M88.432 98.792s5.173-2.596 10.236 6.412" class="O P Q R"/><path d="M156.703 99.835a13.16 13.16 0 0 0 2.301 7.261 13.1 13.1 0 0 0 5.931 4.758 13.04 13.04 0 0 0 7.565.652 13.07 13.07 0 0 0 6.653-3.672c1.807-1.857 3.026-4.21 3.501-6.761s.188-5.187-.828-7.574-2.714-4.419-4.88-5.838a13.05 13.05 0 0 0-7.288-2.137c-1.723.014-3.427.371-5.012 1.049s-3.022 1.664-4.226 2.901-2.153 2.701-2.791 4.308a13.14 13.14 0 0 0-.926 5.053z" class="N"/><path d="M177.13 97.617s-5.283-2.218-9.882 6.966" class="O P Q R"/><path d="M132.581 110.4c24.846-.257 44.794-19.327 44.556-42.594s-20.574-41.92-45.421-41.663-44.794 19.326-44.555 42.593 20.574 41.92 45.42 41.664z" class="M"/><path d="M145.736 126.236c-3.095 2.926-6.75 5.19-10.744 6.656-5.151 1.331-10.214-2.552-10.281-2.596l-6.079-4.437-1.968 43.195.663.71c8.844 9.363 21.49 9.363 30.222 0l1.283-1.375-3.096-42.153z" class="N"/><path d="M114.498 120.113s7.517 25.158 20.472 24.781c10.634-.31 13.265-23.872 13.265-23.872l-33.737-.909z" fill="#1e0b02"/><path d="M167.89 75.275c.162 11.84-1.07 23.658-3.67 35.209-1.945 8.541-7.649 14.576-15.785 19.479l-1.481.91c-4.335 2.56-9.248 3.971-14.276 4.099s-10.007-1.031-14.465-3.367c-8.843-4.77-15.277-11.093-17.333-20.278a219.94 219.94 0 0 1-4.422-34.942s-3.382-38.381 35.13-38.27 36.302 37.161 36.302 37.161z" class="N"/><path d="M129.289 95.309l.066 5.546 3.781-.044" class="O P Q R"/><path d="M102.936 75.631l20.339-2.063s-1.879-5.258-10.103-4.326-10.236 6.389-10.236 6.389zm55.977-.577l-20.384-1.642s1.769-5.302 10.015-4.437 10.369 6.079 10.369 6.079z" class="M"/><path d="M118.875 87.899a3.14 3.14 0 0 1-.513 1.742 3.12 3.12 0 0 1-1.391 1.162 3.11 3.11 0 0 1-3.402-.654 3.13 3.13 0 0 1-.864-1.596c-.124-.606-.067-1.235.165-1.809s.627-1.065 1.138-1.412a3.11 3.11 0 0 1 1.728-.54c.409-.003.815.075 1.194.23a3.1 3.1 0 0 1 1.016.671c.292.288.524.632.683 1.01s.243.785.246 1.195zm30.576-.332c.009.62-.166 1.228-.502 1.748a3.12 3.12 0 0 1-1.386 1.172 3.11 3.11 0 0 1-1.802.2c-.607-.114-1.166-.406-1.608-.84a3.13 3.13 0 0 1-.87-1.595c-.127-.606-.071-1.237.161-1.811a3.14 3.14 0 0 1 1.137-1.416 3.11 3.11 0 0 1 1.731-.541 3.13 3.13 0 0 1 2.196.899c.587.576.926 1.361.943 2.185z" fill="#1e0b02"/><path d="M119.893 108.82s8.71 4.637 22.616-.244" stroke="#000" class="O P Q"/><path d="M167.801 66.557s-56.664 2.707-54.608-30.661c0 0 49.257-14.576 54.608 30.661z" class="M"/><path d="M95.551 67.311s19.897-8.564 19.632-29.041c0 0-20.406 2.574-19.632 29.041z" class="M"/><mask id="B" maskUnits="userSpaceOnUse" x="38" y="171" width="190" height="73"><path d="M218.208 200.647c-3.891-10.516-15.475-24.183-37.738-28.598l-.752.533c-27.613 20.167-64.755 19.257-92.656-.577l1.393-.466c-23.965 3.727-36.346 18.17-40.392 29.108l-9.374 42.862H227.56l-9.352-42.862z" fill="#fff"/></mask><g mask="url(#B)"><path d="M33.273 176.73h198.333M33.273 187.113h198.333M33.273 197.519h198.333M33.273 207.901h198.333M33.273 218.284h198.333M33.273 228.689h198.333M33.273 239.072h198.333" stroke="#ef758d" stroke-miterlimit="10"/></g></g></g><defs><clipPath id="C"><path fill="#fff" d="M0 0h250v256H0z"/></clipPath></defs></svg>
